X: 22975
T: Lass On The Strand, The
R: hornpipe
M: 4/4
K: Gmajor
b>gd>B G>Bd>g|f2 e2 c3 e|d>cA>F D2 (3DEF|G>AB>c d2 g>a|
b>gd>B G2 (3Bdg|(3fgf (3ecA E2 ^D>E|D>dc>A F>DE>F|G2 g2 G2:|
F>GA>B c2 (3DEF|G>AB>c d2 (3BAG|A>^GA>B c>DE>F|G>AB>c d2 (3Bdg|
b>gd>B G>Bd>g|f>ec>A e2 ^d>e|d>cA>F D>c (3cBA|G2 D2 G2:|
bgdB GBdg|f2 e2 c3 e|dcAF D2 EF|GABc d2 ga|
bgdB G2 dg|f2 e2 E2 ^DE|DdcA FDEF|G2 g2 G2:|
FGAB c2 EF|GABc d2 BG|A^GAB c2 EF|GABc d3 g|
bgdB GBdg|fecA e2 ^de|dcAF DcBA|G2 D2 G2:|

